X:1
T:American Hymn, 10.10.10.10 D
T:American Hymn, 10.10.10.10 D
T:Matthias Keller, 1866
T:Public Domain Courtesy of the Cyber Hymnal™
C:Matthias Keller, 1866
Z:Public Domain
Z:Courtesy of the Cyber Hymnal™
%%score ( 1 2 ) ( 3 4 )
L:1/8
Q:1/4=115
M:4/4
K:Eb
V:1 treble 
V:2 treble 
V:3 bass 
V:4 bass 
V:1
 [EB]4 E2 [DF]2 | (G2 B2) [EB]2 [EB]2 | [Ec]4 [DB]2 [FA]2 | ([E-G]4 E4) | [DF]4 [DF]2 [EG]2 | %5
 A4 [FB]2 [FA]2 | [EG]4 [F=A]2 [FA]2 | ([F-B]4 F4) | [FB]4 [EB]2 [=Ec]2 | [FA]4 [FA]2 [DB]2 | %10
 [EG]4 [EG]2 [FA]2 | F4 z4 | [B,G]4 [B,G]2 [B,G]2 | (B2 A2) [A,G]2 [CF]2 | [B,E]4 [DF]3 [DF] | %15
 (z2 B,2 [B,EG]2 [EGB]2) | [Be]4 [Bd]2 [Ac]2 | ([GB]2 [FA]2) [=EG]2 F2 | [EB]4 [B,D]3 [B,D] | %19
 [B,E]8 | [DF]4 [DF]2 [EG]2 | A4 [FB]2 [FA]2 | [EG]4 [EG]2 [FA]2 | [DF]4 z4 | %24
 [B,G]4 [B,G]2 [B,G]2 | (B2 A2) [A,G]2 [CF]2 | [B,E]4 [DF]3 [DF] | (z2 [B,E]2 [B,EG]2 [EGB]2) | %28
 [Be]4 [Bd]2 [Ac]2 | ([GB]2 [FA]2) [=EG]2 F2 | [EB]4 [B,D]3 [B,D] | [B,E]8 |] %32
V:2
 x4 E2 x2 | E4 x4 | x8 | x4 (B,2 G2) | x8 | (E2 D2) x4 | x8 | x4 (B,2 D2) | x8 | x8 | x8 | F4 x4 | %12
 x8 | A,4 x4 | x8 | [EG]4 x4 | x8 | x6 F2 | x8 | x8 | x8 | E2 D2 x4 | x8 | x8 | x8 | A,4 x4 | x8 | %27
 [EG]4 x4 | x8 | x6 F2 | x8 | x8 |] %32
V:3
 [E,G,]4 [G,B,]2 [F,B,]2 | B,4 [G,,B,]2 [G,,G,]2 | [A,,F,]4 [B,,F,]2 [D,B,]2 | ([E,-B,]4 G,2 B,2) | %4
 [B,D]4 [A,B,]2 [G,B,]2 | [F,B,]4 [D,B,]2 [D,B,]2 | B,4 [C,E]2 [F,,E]2 | [B,,D]4 z4 | %8
 (B,2 A,2) [E,G,]2 [C,G,]2 | A,4 [D,B,]2 [B,,B,]2 | B,4 [C,C]2 [F,,C]2 | %11
 (z2 [C,,C,]2 [D,,D,]2) x2 | C2 B,2 [=E,_D]2 [E,C]2 | [F,C]4 [A,,C]2 [A,,A,]2 | %14
 [B,,G,]4 [B,,B,]3 [B,,B,] | (z2 [G,,G,]2 [E,,E,]2 [C,,B,,]2) | [G,,G,C]4 [A,,A,E]2 [A,,A,E]2 | %17
 ([=E,,=E,_D]2 [F,,F,C]2) [G,,G,B,]2 [A,,A,]2 | [B,,G,A,]4 [B,,A,]3 [B,,A,] | [E,G,]8 | %20
 [B,D]4 [A,B,]2 [G,B,]2 | [F,B,]4 [D,B,]2 [D,B,]2 | B,4 [C,C]2 [F,,C]2 | (z2 B,,2 C,2 D,2) | %24
 E2 D2 [=E,_D]2 [E,C]2 | [F,C]4 [A,,C]2 [A,,A,]2 | [B,,G,]4 [B,,B,]3 [B,,B,] | %27
 (z2 [G,,G,]2 [E,,E,]2 [C,,B,,]2) | [G,,G,E]4 [A,,A,E]2 [A,,A,E]2 | %29
 ([=E,,=E,_D]2 [F,,F,C]2) [G,,G,B,]2 [A,,A,]2 | [B,,G,A,]4 [B,,A,]3 [B,,A,] | [E,G,]8 |] %32
V:4
 x8 | (E,2 G,,2) x4 | x8 | x4 E,4 | x8 | x8 | (E,2 D,2) x4 | x8 | D,4 x4 | F,2 E,2 x4 | %10
 (E,2 D,2) x4 | [B,,D]4 B,,,2 x2 | C,4 x4 | x8 | x8 | [E,B,]4 x4 | x8 | x8 | x8 | x8 | x8 | x8 | %22
 E,2 D,2 x4 | [B,,B,]4 x4 | =E,4 x4 | x8 | x8 | [E,B,]4 x4 | x8 | x8 | x8 | x8 |] %32

